X:94
T:Vladimir's Steamboat
C:Jay Ungar
S:Flook - Rubai
Z:robin.beech@mcgill.ca
R:reel
M:4/4
L:1/8
K:Amix
Acde dcAc | dedc AGEA- | Acde dcAF | GFGB A4 |
Acde dcAc | dege gedg | edce dcAF | G3E A4 ::
a3e a2a2- | aega bagf | efed cdef | gaag ee a2 |1
a3e a2a2- | aega bagf | efed cdef | ecdB AAce :|2
a3b ageg | abae gaba | gfef edcd | efec dBA2 |]
